X:141
T:Martin Wynne's #2
M:4/4
L:1/8
R:Reel
K:D
FBAF E2FE|DB,~B,2 DB,A,2|B,EE2 FEDE|FABc dcBA|
FBAF E2FE|DB,~B,2 DB,A,2|B,E~E2 FEDE|FBBA B2BA:|
|:FBAF A2FA|(3Bcd eg fede|~f2af egfe|dBAF BAFE|
FBAF A2FA|(3Bcd eg fede|~f2af e2fe | dBAF ~B2AB:||
